X:230
T: Conscritlied (3-33), S. 107
N: P1005
O: Lothringen
S: PINCK, Louis: Verklingende Weisen, Bd3, Metz 1933]
R: Soldatenlied]
M: 4/4
L: 1/8
K: D
d2 | d2AAA2GF | F4E2
F2 | G2B2A2G2 | F2A2d4 | z6
F2 | E3EF2G2 | A2c2e2cc | d3Be2c2 | A4z2
AG | FEFFF2z2 | AAABA2z2 | A2GFG2A2 | F2A2d2z2
FEFGF2z2 | AAABA2z2 | AGGGG2A2 | F4z2

